Simply-Green-Circles/scalable/apps/preferences-desktop-accessibility.svg

<?xml version="1.0" encoding="UTF-8" standalone="no"?>
<svg
   xmlns:dc="http://purl.org/dc/elements/1.1/"
   xmlns:cc="http://creativecommons.org/ns#"
   xmlns:rdf="http://www.w3.org/1999/02/22-rdf-syntax-ns#"
   xmlns:svg="http://www.w3.org/2000/svg"
   xmlns="http://www.w3.org/2000/svg"
   xmlns:sodipodi="http://sodipodi.sourceforge.net/DTD/sodipodi-0.dtd"
   xmlns:inkscape="http://www.inkscape.org/namespaces/inkscape"
   width="48"
   height="48"
   viewBox="0 0 12.7 12.7"
   version="1.1"
   id="svg4"
   sodipodi:docname="preferences-desktop-accessibility.svg"
   inkscape:version="0.92.4 (5da689c313, 2019-01-14)">
  <metadata
     id="metadata10">
    <rdf:RDF>
      <cc:Work
         rdf:about="">
        <dc:format>image/svg+xml</dc:format>
        <dc:type
           rdf:resource="http://purl.org/dc/dcmitype/StillImage" />
        <dc:title></dc:title>
      </cc:Work>
    </rdf:RDF>
  </metadata>
  <defs
     id="defs8" />
  <sodipodi:namedview
     pagecolor="#ffffff"
     bordercolor="#666666"
     borderopacity="1"
     objecttolerance="10"
     gridtolerance="10"
     guidetolerance="10"
     inkscape:pageopacity="0"
     inkscape:pageshadow="2"
     inkscape:window-width="1087"
     inkscape:window-height="480"
     id="namedview6"
     showgrid="false"
     inkscape:zoom="4.9166667"
     inkscape:cx="2.1355932"
     inkscape:cy="24"
     inkscape:window-x="0"
     inkscape:window-y="25"
     inkscape:window-maximized="0"
     inkscape:current-layer="svg4" />
  <path
     d="m 6.344,0.073 a 6.29,6.29 0 0 0 -6.29,6.29 6.29,6.29 0 0 0 6.29,6.288 6.29,6.29 0 0 0 6.29,-6.289 6.29,6.29 0 0 0 -6.29,-6.29 z M 6.326,1.009 A 5.407,5.407 0 0 1 11.733,6.416 5.407,5.407 0 0 1 6.326,11.823 5.407,5.407 0 0 1 0.92,6.416 5.407,5.407 0 0 1 6.326,1.01 Z m 0.073,0.968 c -0.569,0 -1.03,0.46 -1.03,1.027 a 1.03,1.03 0 1 0 2.06,0 1.03,1.03 0 0 0 -1.03,-1.027 z m -3.74,2.178 a 0.281,0.281 0 0 0 -0.127,0.04 c -0.101,0.05 -0.168,0.126 -0.17,0.235 0,0.11 0.07,0.204 0.17,0.255 L 5.274,5.507 5.255,7.499 4.313,10.482 c -0.047,0.167 -0.028,0.295 0.05,0.401 0.098,0.134 0.337,0.063 0.43,-0.073 l 1.562,-3.22 1.532,3.214 c 0.083,0.141 0.268,0.19 0.413,0.11 0.145,-0.08 0.151,-0.26 0.1,-0.401 L 7.463,7.516 7.425,5.641 10.206,4.674 A 0.294,0.294 0 0 0 10.318,4.328 C 10.27,4.203 10.175,4.17 10.038,4.185 A 0.502,0.502 0 0 0 9.868,4.201 V 4.198 L 6.35,4.698 2.85,4.19 A 0.72,0.72 0 0 0 2.66,4.154 Z"
     id="path2"
     inkscape:connector-curvature="0"
     style="fill:#2ca02c" />
</svg>

<svg xmlns="http://www.w3.org/2000/svg" width="48" height="48" viewBox="0 0 12.7 12.7"><path fill="#2ca02c" d="M6.34.07a6.29 6.29 0 0 0-6.29 6.3 6.29 6.29 0 0 0 6.3 6.28 6.29 6.29 0 0 0 6.28-6.29A6.29 6.29 0 0 0 6.34.07zm-.01.94a5.4 5.4 0 0 1 5.4 5.4 5.4 5.4 0 0 1-5.4 5.41 5.4 5.4 0 0 1-5.41-5.4A5.4 5.4 0 0 1 6.32 1zm.07.97c-.57 0-1.03.46-1.03 1.02a1.03 1.03 0 1 0 2.06 0A1.03 1.03 0 0 0 6.4 1.98zM2.66 4.15a.28.28 0 0 0-.13.04c-.1.05-.17.13-.17.24 0 .11.07.2.17.26l2.74.82-.01 1.99-.95 2.98c-.04.17-.02.3.05.4.1.14.34.07.43-.07l1.57-3.22 1.53 3.21a.3.3 0 0 0 .41.11c.14-.08.15-.26.1-.4l-.94-3-.03-1.87 2.78-.97a.3.3 0 0 0 .1-.34c-.04-.13-.14-.16-.27-.14a.5.5 0 0 0-.17.01l-3.52.5-3.5-.51a.72.72 0 0 0-.19-.04z"/></svg>
